!!!OTL: Der Unverbesserliche (2-75) S. 225
!!!id: P0948
**kern
*clefG2
*k[b-]
*F:
{8a
=1
8g
8f
8f
8g
4a}
8r
=2
{8a
=3
8g
8f
8f
8g
4a}
8r
=4
{8d
=5
8a
8a
8a
8a
8b-
8a
8g}
=6
{8f
=7
8a
8a
8g
8f
4.f}
=8
{8a
=9
4g
16f
16f
8d
4c}
8r
=10
{8d
=11
8f
8f
8f
8g
4a}
8r
==
*-
!!!minrhy: 16
!!!meters: 4/4 ]  ZZ[6
!!!cut: Der Unverbesserliche (2-75) S. 225
!!!reg: Lothringen
!!!trd: PINCK, Louis: Verklingende Weisen, Bd 2, Metz 1928
!!!rhy1: X_  X_X_X_X_X__0   (x2)
!!!rhy2: X_  X_X_X_X_X__0
!!!key: P0948  16  F 4/4 ]  ZZ[6
!!!mod: SECHSTONSKALA DUR ?]  AMBITUS[7b
!!!kad: 3321-53
!!!akz: 23_23_34_31_2-5_13_
!!!fot: 'a__a__b__c__d__e__
!!!for: 'a__a__aw_av_b__a__
!!!fok: 'V__V__^a_^__\__/__
!! PHRAS[AUFTAKTIG]
!!!fkt: Fenstergang?
!! LOTH VKL
!! PR[11] 2K[0] 2G[19] 3K[6] 3G[0] 4A[10] 4Ü[0] 5A[0] 6K[0] 6G[0]
!! 7K[0] 7G[0] 8A[0] MEHR[0] SI[35] ABS[62] SR[19] SP[16]
!! ST[0] 2k[13] 2g[32] 3k[2] 3g[3] 4d[3] 4ü[0] 5d[0] 6k[0] 6g[0]
!! 7k[0] 7g[0] 8d[0] mehr[0] si[53] dm[-18] sr[45] sp[8]
!! 1F[63] 2F[32] 3F[0] 4F[0] LF[0] 2P[5] 3P[0] 4P[0] TRI[0] DF[3] AB[63]
!! TF[0] U3K[0] U3[0] U4[0] U4Ü[0] U5[0] U6K[0] U6[0] U7K[10] U7[0]
!! N1[19] N2K[0] N2[14] N3K[27] N3[0] N4[14] N4Ü[0] N5[10] N6K[3] N6[0]
!!!n7k: 3] N7[0] O1[0] O2K[0] O2[0] O3K[0] O3[0] HÖ[0
